X:30
T:Waltzing Matilda
T:Dance: Southern Cross
H:Dance composed by Karin Howe, Julie Schult, and Mike Miller
M:4/4
L:1/8
K:G
P:A
G>A | B2 B2  A2 B>A | G>A B>G E>F (3GFE | D2 G>B d2 d>e | d2 c>B A2 G>A |
      B2 B2  A2 B>A | G>A B>G E>F (3GFE | D2 G>B d2 c>B | A2 A>A G2 |]
P:B
z2  | d2 d>e d2 B2  | g2  g>g f2  e2    | d2 d>d e2 d>B | d2 c>B A2 G>A |
      B2 B2  A2 B>A | G>A B>G E>F (3GFE | D2 G>B d2 c>B | A2 G>F G2 |]
